X: 23484
T: Lewis Proudlock's
R: hornpipe
M: 4/4
K: Gmajor
|:D2|GDGB AGAB|G2gf gedc|(3Bcd BG (3ABc AF|GFGA GFED|
GDGB AGAB|G2gf gedc|(3Bcd BG (3ABc AF|G2B2 G2:|
|:Bc|dedc B2 (3GAB|cdcB A2Bc|dedc B2g2|agfe dcBA|
GDGB AGAB|G2gf gedc|(3Bcd BG (3ABc AF|G2B2 G2:|

